images_elementary_svg/cmd/sc_entirecell.svg

<svg viewBox="0 0 16 16" xmlns="http://www.w3.org/2000/svg" xmlns:xlink="http://www.w3.org/1999/xlink"><linearGradient id="a" gradientTransform="matrix(.59436 0 0 .5999 -19.265 -.033)" gradientUnits="userSpaceOnUse" x1="25.132" x2="25.132" y1="15.5" y2="48.396"><stop offset="0" stop-color="#fafafa"/><stop offset="1" stop-color="#e2e1de"/></linearGradient><linearGradient id="b" gradientTransform="matrix(.98704 0 0 .88413 .093 -1.35)" gradientUnits="userSpaceOnUse" x1="7" x2="7" y1="2" y2="9"><stop offset="0" stop-color="#fff"/><stop offset=".5" stop-color="#fff" stop-opacity=".235"/><stop offset=".951" stop-color="#fff" stop-opacity=".157"/><stop offset="1" stop-color="#fff" stop-opacity=".392"/></linearGradient><linearGradient id="c" gradientTransform="matrix(.94103 0 0 1.027 .46 -2.56)" gradientUnits="userSpaceOnUse" x1="7" x2="7" y1="-4" y2="17"><stop offset="0" stop-color="#cdf87e"/><stop offset=".262" stop-color="#a2e34f"/><stop offset=".661" stop-color="#68b723"/><stop offset="1" stop-color="#1d7e0d"/></linearGradient><g transform="translate(0 2)"><rect fill="url(#a)" height="10" rx=".424" ry=".491" width="14" x="1" y="3"/><path d="m.498-1.998c-.276 0-.5.224-.5.5l.002 14.998c0 .276.224.5.5.5h15c.276 0 .5-.224.5-.5l-.002-10.5h.002v-1h-.002v-3.498c0-.276-.224-.5-.5-.5h-15zm.498.998h14.004v3h-4.002v-2.998h-1v2.998h-4v-2.998h-1v2.998h-4.002zm0 4h4.004v2h-4v1h4v3h-4v1h4v3h1v-3h4v3h1v-3h4v-1h-4v-3h4v3l.002 4.002h-14.004zm5.004 0h4v2h-4zm5 0h4v2h-4zm-5 3h4v3h-4z" fill="#030303" opacity=".32"/></g><path d="m.5 0a.5.5 0 0 0 -.5.5v3.5h.998v-3.002h14.004v3.002h.998v-3.5a.5.5 0 0 0 -.5-.5zm4.5 1v2h-4v1h14v-1h-4v-2h-1v2h-4v-2z" fill="#126400" opacity=".4"/><path d="m.5.52h15.02v3.082h-15.02z" fill="url(#c)"/><path d="m.5.52v3.082l.51-.008-.01-2.594h14v2.602h.518v-3.08z" fill="url(#b)"/><path d="m5 .494h1v3.074h-1zm5 0h1v3.103h-1z" fill="#126400" opacity=".4"/><path d="m10 8v3h-4v-3z" fill="#fcaf3e"/><path d="m11 8c0-.554-.446-1-1-1h-4c-.554 0-1 .446-1 1v3c0 .554.446 1 1 1h4c.554 0 1-.446 1-1zm-1 0v3h-4v-3z" fill="#ce5c00"/></svg>

<svg xmlns="http://www.w3.org/2000/svg" xmlns:xlink="http://www.w3.org/1999/xlink" viewBox="0 0 16 16"><defs><linearGradient gradientTransform="matrix(1.38317 0 0 1.41442 -36.243 -3.873)" id="b" gradientUnits="userSpaceOnUse" x1="8.295" x2="8.295" y1="-4.284" y2="16.85"><stop offset="0" stop-color="#cdf87e"/><stop offset=".262" stop-color="#a2e34f"/><stop offset=".661" stop-color="#68b723"/><stop offset="1" stop-color="#1d7e0d"/></linearGradient><linearGradient id="c" gradientTransform="matrix(.59436 0 0 .5999 -19.265 -.033)" gradientUnits="userSpaceOnUse" x1="25.132" x2="25.132" y1="15.5" y2="48.396"><stop offset="0" stop-color="#fafafa"/><stop offset="1" stop-color="#e2e1de"/></linearGradient><linearGradient id="a"><stop offset="0" stop-color="#fff"/><stop offset=".5" stop-color="#fff" stop-opacity=".235"/><stop offset=".951" stop-color="#fff" stop-opacity=".157"/><stop offset="1" stop-color="#fff" stop-opacity=".392"/></linearGradient><linearGradient xlink:href="#a" id="e" x1="7" y1="2" x2="7" y2="9" gradientUnits="userSpaceOnUse" gradientTransform="matrix(.98704 0 0 .88413 .093 -1.35)"/><linearGradient xlink:href="#b" id="d" x1="7" y1="-4" x2="7" y2="17" gradientUnits="userSpaceOnUse" gradientTransform="matrix(.94103 0 0 1.027 .46 -2.56)"/></defs><g transform="translate(0 2)"><rect height="10" rx=".424" ry=".491" width="14" x="1" y="3" fill="url(#c)"/><path d="M.498-1.998c-.276 0-.5.224-.5.5L0 13.5c0 .276.224.5.5.5h15c.276 0 .5-.224.5-.5L15.998 3H16V2h-.002v-3.498c0-.276-.224-.5-.5-.5h-15zM.996-1H15v3h-4.002V-.998h-1V2h-4V-.998h-1V2H.996v-3zm0 4H5v2H1v1h4v3H1v1h4v3h1v-3h4v3h1v-3h4V9h-4V6h4v3l.002 4.002H.998L.996 3zM6 3h4v2H6V3zm5 0h4v2h-4V3zM6 6h4v3H6V6z" opacity=".32" fill="#030303"/></g><path d="M.5 0a.5.5 0 0 0-.5.5V4h.998V.998h14.004V4H16V.5a.5.5 0 0 0-.5-.5zM5 1v2H1v1h14V3h-4V1h-1v2H6V1z" opacity=".4" fill="#126400"/><path d="M.5.52h15.02v3.082H.5z" fill="url(#d)"/><path d="M.5.52v3.082l.51-.008L1 1h14v2.602h.518V.522z" fill="url(#e)"/><path opacity=".4" fill="#126400" d="M5 .494h1v3.074H5zm5 0h1v3.103h-1z"/><path d="M10 8v3H6V8z" fill="#fcaf3e"/><path d="M11 8c0-.554-.446-1-1-1H6c-.554 0-1 .446-1 1v3c0 .554.446 1 1 1h4c.554 0 1-.446 1-1zm-1 0v3H6V8z" fill="#ce5c00"/></svg>
